static/img/tool.svg

<svg viewBox="0 0 15 15" fill="currentColor"
  xmlns="http://www.w3.org/2000/svg">
  <path d="M9.70951 4.76529C9.35941 4.41517 9.35941 3.8475 9.70951 3.49739L11.8346 1.37235C11.3366 1.13367 10.7788 1 10.1897 1C8.08533 1 6.37939 2.70594 6.37939 4.81031C6.37939 5.39939 6.51306 5.95726 6.75172 6.4552L1.37136 11.8355C0.876212 12.3307 0.876212 13.1336 1.37136 13.6286C1.86651 14.1238 2.6693 14.1238 3.16445 13.6286L8.54481 8.24829C9.04275 8.48695 9.60066 8.62062 10.1897 8.62062C12.2941 8.62062 14 6.91468 14 4.81031C14 4.2287 13.8697 3.67752 13.6367 3.18438L11.5166 5.30445C11.1665 5.65458 10.5988 5.65458 10.2487 5.30446L9.70951 4.76529Z" fill="currentColor" stroke="currentColor" strokeWidth="0.75" strokeLinecap="round" strokeLinejoin="round" />
  <path fillRule="evenodd" clipRule="evenodd" d="M11.5223 8.36487L6.75835 3.08342C7.97767 2.68073 9.53838 3.15399 10.6381 4.37315C11.7378 5.5923 12.0482 7.19339 11.5223 8.36487ZM6.15533 8.43785L6.13426 8.4145C6.13776 8.4184 6.14126 8.4223 6.14478 8.42619C6.14829 8.43009 6.15181 8.43397 6.15533 8.43785Z" fill="currentColor" />
</svg>

<svg viewBox="0 0 15 15" fill="currentColor" xmlns="http://www.w3.org/2000/svg"><path d="M9.71 4.765a.897.897 0 0 1 0-1.268l2.125-2.125a3.81 3.81 0 0 0-5.083 5.083l-5.38 5.38a1.268 1.268 0 0 0 1.792 1.794l5.38-5.38a3.81 3.81 0 0 0 5.092-5.064l-2.12 2.12a.897.897 0 0 1-1.267 0l-.54-.54Z" stroke="currentColor"/><path d="M11.522 8.365 6.758 3.083c1.22-.402 2.78.071 3.88 1.29 1.1 1.22 1.41 2.82.884 3.992Zm-5.367.073-.02-.024.01.012.01.012Z"/></svg>
